X:1
T:Lord Louth
T:Lord Louth
T:Carolan
C:Carolan
%%score 1 2
L:1/8
M:6/8
K:C
V:1 treble 
V:2 bass 
V:1
 G | A/B/cc c>dc | BGg Te2 d | c2 c cGc | Bcd d2 e/f/ | gec gec | c'ba gec | f2 f faf | %8
 fag [ceg]2 |] B/c/ | d2 d dBG | dBG d2 d | e2 e ecA | ecA Tf2 g | edc c'cc | f/g/af gag | %16
 fed TB>AG | ECE GE/F/G | GE/F/G GEC | FDF AF/G/A | AF/G/A dBG | (e/f/g)e (d/e/f)d | %22
 (e/f/g)e (f/g/a)f | cBA GcB | c3 C2 |] %25
V:2
 z | C3 C,3 | G,2 B, C2 G, | E,3 C,3 | G,3 E,,3 | E,3 C,3 | A,2 F, C3 | D2 C B,3 | A,F,G, [C,C]2 |] %9
 z | G,3 G,,3 | B,,3 B,,A,,G,, | C,3 C3 | A,3 D2 B, | C3 E,2 z | D,3 B,,3 | D,2 F, G,3 | C,3 C,3 | %18
 C,3 C,3 | D,3 D,3 | D,3 B,3 | C3 B,3 | C3 F,3 | G,3 G,,3 | C,3 C,2 |] %25

